public/cloud-icons/azure/storage/storage-account-browser.svg

<?xml version="1.0" encoding="UTF-8" standalone="no"?>
<!-- Generated by Microsoft Visio, SVG Export Storage Account Browser.svg Page-1 -->

<svg
   xmlns:dc="http://purl.org/dc/elements/1.1/"
   xmlns:cc="http://creativecommons.org/ns#"
   xmlns:rdf="http://www.w3.org/1999/02/22-rdf-syntax-ns#"
   xmlns:svg="http://www.w3.org/2000/svg"
   xmlns="http://www.w3.org/2000/svg"
   xmlns:sodipodi="http://sodipodi.sourceforge.net/DTD/sodipodi-0.dtd"
   xmlns:inkscape="http://www.inkscape.org/namespaces/inkscape"
   width="0.78738308in"
   height="0.62986004in"
   viewBox="0 0 56.691744 45.35002"
   xml:space="preserve"
   class="st7"
   version="1.1"
   id="svg50"
   sodipodi:docname="Storage Account Browser.svg"
   style="font-size:12px;overflow:visible;color-interpolation-filters:sRGB;fill:none;fill-rule:evenodd;stroke-linecap:square;stroke-miterlimit:3"
   inkscape:version="0.92.5 (2060ec1f9f, 2020-04-08)"><metadata
   id="metadata54"><rdf:RDF><cc:Work
       rdf:about=""><dc:format>image/svg+xml</dc:format><dc:type
         rdf:resource="http://purl.org/dc/dcmitype/StillImage" /></cc:Work></rdf:RDF></metadata><sodipodi:namedview
   pagecolor="#ffffff"
   bordercolor="#666666"
   borderopacity="1"
   objecttolerance="10"
   gridtolerance="10"
   guidetolerance="10"
   inkscape:pageopacity="0"
   inkscape:pageshadow="2"
   inkscape:window-width="640"
   inkscape:window-height="480"
   id="namedview52"
   showgrid="false"
   inkscape:zoom="1.5612629"
   inkscape:cx="37.796545"
   inkscape:cy="30.22564"
   inkscape:window-x="0"
   inkscape:window-y="0"
   inkscape:window-maximized="0"
   inkscape:current-layer="svg50" />
	<style
   type="text/css"
   id="style2">
	<![CDATA[
		.st1 {fill:#0078d4;stroke:none;stroke-linecap:butt;stroke-width:34}
		.st2 {fill:#ffffff;stroke:none;stroke-linecap:butt;stroke-width:34}
		.st3 {fill:url(#grad0-10);stroke:none;stroke-linecap:butt;stroke-width:34}
		.st4 {fill:#005ba1;stroke:none;stroke-linecap:butt;stroke-width:34}
		.st5 {fill:#83b9f9;stroke:none;stroke-linecap:butt;stroke-width:34}
		.st6 {fill:#003067;stroke:none;stroke-linecap:butt;stroke-width:34}
		.st7 {fill:none;fill-rule:evenodd;font-size:12px;overflow:visible;stroke-linecap:square;stroke-miterlimit:3}
	]]>
	</style>

	<defs
   id="Patterns_And_Gradients">
		<linearGradient
   id="grad0-10"
   x1="-7.0787096e-07"
   y1="86.753547"
   x2="47.775216"
   y2="86.753547"
   gradientTransform="scale(1.1866346,0.84271942)"
   gradientUnits="userSpaceOnUse">
			<stop
   offset="0"
   stop-color="#0078d4"
   stop-opacity="1"
   id="stop4" />
			<stop
   offset="1"
   stop-color="#5ea0ef"
   stop-opacity="1"
   id="stop6" />
		</linearGradient>
	</defs>
	<g
   id="g48"
   transform="translate(-33.999999,-34.004271)">
		<title
   id="title10">Page-1</title>
		<g
   id="group21491-1"
   transform="translate(34,-34.0157)">
			<title
   id="title12">Storage Account Browser.21491</title>
			<g
   id="group21492-2">
				<title
   id="title14">Sheet.21492</title>
				<g
   id="shape21493-3">
					<title
   id="title16">Sheet.21493</title>
					<path
   d="M 55.36,73.05 H 30.65 A 1.12756,1.10485 0 0 1 29.92,72.82 L 22.84,68.21 A 1.43622,1.40729 -180 0 0 22.11,68.02 H 1.34 A 1.33543,1.30854 -180 0 0 0,69.29 v 42.81 a 1.33543,1.30854 -180 0 0 1.34,1.27 h 54.02 a 1.32913,1.30236 -180 0 0 1.33,-1.27 V 74.35 a 1.33228,1.30545 -180 0 0 -1.33,-1.3 z"
   class="st1"
   id="path18"
   inkscape:connector-curvature="0"
   style="fill:#0078d4;stroke:none;stroke-width:34;stroke-linecap:butt" />
				</g>
				<g
   id="shape21494-5"
   transform="translate(5.1685,-40.3547)">
					<title
   id="title21">Sheet.21494</title>
					<path
   d="m 0,112.85 a 0.532296,0.521575 -180 0 0 0.532283,0.52156 L 12.34,113.37 a 0.532296,0.521575 -180 0 0 0.532283,-0.52156 L 12.87,111.38 a 0.532296,0.521575 -180 0 0 -0.532283,-0.52156 L 0.53,110.85 a 0.532296,0.521575 -180 0 0 -0.532283,0.52156 z"
   class="st2"
   id="path23"
   inkscape:connector-curvature="0"
   style="fill:#ffffff;stroke:none;stroke-width:34;stroke-linecap:butt" />
				</g>
				<g
   id="shape21495-7"
   transform="translate(0,-0.129619)">
					<title
   id="title26">Sheet.21495</title>
					<path
   d="M 55.36,73.11 H 28.35 A 1.20945,1.18509 -180 0 0 27.4,73.5 l -4.49,4.25 a 1.44252,1.41347 0 0 1 -0.94,0.36 H 1.34 A 1.33543,1.30854 -180 0 0 0,79.42 v 32.68 a 1.33858,1.31162 -180 0 0 1.34,1.27 h 54.02 a 1.33228,1.30545 -180 0 0 1.33,-1.27 V 74.48 a 1.33228,1.30545 -180 0 0 -1.26,-1.37 z"
   class="st3"
   id="path28"
   inkscape:connector-curvature="0"
   style="fill:url(#grad0-10);stroke:none;stroke-width:34;stroke-linecap:butt" />
				</g>
				<g
   id="shape21496-11"
   transform="translate(42.2866,-12.7027)">
					<title
   id="title31">Sheet.21496</title>
					<path
   d="m 0,112.62 a 0.762222,0.74687 -180 0 0 0.762205,0.74685 L 11.23,113.37 a 0.762222,0.74687 -180 0 0 0.762205,-0.74685 L 11.99,106.28 a 0.762222,0.74687 -180 0 0 -0.762205,-0.74685 L 0.76,105.54 a 0.762222,0.74687 -180 0 0 -0.762205,0.74685 z"
   class="st4"
   id="path33"
   inkscape:connector-curvature="0"
   style="fill:#005ba1;stroke:none;stroke-width:34;stroke-linecap:butt" />
				</g>
				<g
   id="shape21497-13"
   transform="translate(27.8866,-12.6872)">
					<title
   id="title36">Sheet.21497</title>
					<path
   d="m 15.24,95.15 10.46,0.18 a 0.762205,0.746853 0 0 1 0.749606,0.759197 L 26.33,102.43 a 0.762205,0.746853 0 0 1 -0.777953,0.73451 L 15.09,102.98 a 0.762205,0.746853 0 0 1 -0.749606,-0.76228 L 14.46,95.88 a 0.762205,0.746853 0 0 1 0.777953,-0.734508 z M 0,106.29 v 6.33 a 0.762205,0.746853 -180 0 0 0.762205,0.74994 L 11.23,113.37 a 0.762205,0.746853 -180 0 0 0.762205,-0.74994 L 11.99,106.29 a 0.762205,0.746853 -180 0 0 -0.762205,-0.74994 L 0.77,105.54 a 0.762205,0.746853 -180 0 0 -0.774803,0.74994 z"
   class="st5"
   id="path38"
   inkscape:connector-curvature="0"
   style="fill:#83b9f9;stroke:none;stroke-width:34;stroke-linecap:butt" />
				</g>
				<g
   id="shape21498-15"
   transform="translate(13.4835,-2.4103)">
					<title
   id="title41">Sheet.21498</title>
					<path
   d="m 29.57,105.53 h 10.46 a 0.762205,0.746853 0 0 1 0.765354,0.74685 L 40.8,112.61 a 0.762205,0.746853 0 0 1 -0.765354,0.74685 L 29.57,113.35 a 0.762205,0.746853 0 0 1 -0.765354,-0.74685 L 28.8,106.27 a 0.762205,0.746853 0 0 1 0.765354,-0.74685 z m -15.17,0.76 v 6.33 a 0.762205,0.746853 -180 0 0 0.762205,0.74685 L 25.63,113.37 a 0.762205,0.746853 -180 0 0 0.762205,-0.74685 L 26.39,106.29 a 0.762205,0.746853 -180 0 0 -0.762205,-0.74685 L 15.18,105.54 a 0.762205,0.746853 -180 0 0 -0.774803,0.74685 z m -14.4,0 v 6.33 a 0.762205,0.746853 -180 0 0 0.765354,0.74685 L 11.23,113.37 a 0.762205,0.746853 -180 0 0 0.765354,-0.74685 L 11.99,106.29 a 0.762205,0.746853 -180 0 0 -0.765354,-0.74685 L 0.77,105.54 a 0.762205,0.746853 -180 0 0 -0.765354,0.74685 z"
   class="st6"
   id="path43"
   inkscape:connector-curvature="0"
   style="fill:#003067;stroke:none;stroke-width:34;stroke-linecap:butt" />
				</g>
			</g>
		</g>
	</g>
</svg>

<svg xmlns="http://www.w3.org/2000/svg" xml:space="preserve" width="75.589" height="60.467" style="font-size:12px;overflow:visible;color-interpolation-filters:sRGB;fill-rule:evenodd;stroke-linecap:square;stroke-miterlimit:3" viewBox="0 0 56.692 45.35"><defs><linearGradient id="a" x1="0" x2="47.775" y1="86.754" y2="86.754" gradientTransform="scale(1.18663 .84272)" gradientUnits="userSpaceOnUse"><stop offset="0" stop-color="#0078d4"/><stop offset="1" stop-color="#5ea0ef"/></linearGradient></defs><g transform="translate(-34 -34.004)"><title>Page-1</title><g transform="translate(34 -34.016)"><title>Storage Account Browser.21491</title><title>Sheet.21492</title><title>Sheet.21493</title><path d="M55.36 73.05H30.65a1.128 1.105 0 0 1-.73-.23l-7.08-4.61a1.436 1.407-180 0 0-.73-.19H1.34A1.335 1.309-180 0 0 0 69.29v42.81a1.335 1.309-180 0 0 1.34 1.27h54.02a1.33 1.302-180 0 0 1.33-1.27V74.35a1.332 1.305-180 0 0-1.33-1.3" style="fill:#0078d4;stroke:none;stroke-width:34;stroke-linecap:butt"/><g transform="translate(5.168 -40.355)"><title>Sheet.21494</title><path d="M0 112.85a.532.522-180 0 0 .532.522l11.808-.002a.532.522-180 0 0 .532-.522l-.002-1.468a.532.522-180 0 0-.532-.522L.53 110.85a.532.522-180 0 0-.532.522z" style="fill:#fff;stroke:none;stroke-width:34;stroke-linecap:butt"/></g><g transform="translate(0 -.13)"><title>Sheet.21495</title><path d="M55.36 73.11H28.35a1.21 1.185-180 0 0-.95.39l-4.49 4.25a1.443 1.413 0 0 1-.94.36H1.34A1.335 1.309-180 0 0 0 79.42v32.68a1.339 1.312-180 0 0 1.34 1.27h54.02a1.332 1.305-180 0 0 1.33-1.27V74.48a1.332 1.305-180 0 0-1.26-1.37z" style="fill:url(#a);stroke:none;stroke-width:34;stroke-linecap:butt"/></g><g transform="translate(42.287 -12.703)"><title>Sheet.21496</title><path d="M0 112.62a.762.747-180 0 0 .762.747l10.468.003a.762.747-180 0 0 .762-.747l-.002-6.343a.762.747-180 0 0-.762-.747L.76 105.54a.762.747-180 0 0-.762.747z" style="fill:#005ba1;stroke:none;stroke-width:34;stroke-linecap:butt"/></g><g transform="translate(27.887 -12.687)"><title>Sheet.21497</title><path d="m15.24 95.15 10.46.18a.762.747 0 0 1 .75.76l-.12 6.34a.762.747 0 0 1-.778.735l-10.462-.185a.762.747 0 0 1-.75-.762l.12-6.338a.762.747 0 0 1 .778-.735zM0 106.29v6.33a.762.747-180 0 0 .762.75H11.23a.762.747-180 0 0 .762-.75l-.002-6.33a.762.747-180 0 0-.762-.75H.77a.762.747-180 0 0-.775.75z" style="fill:#83b9f9;stroke:none;stroke-width:34;stroke-linecap:butt"/></g><g transform="translate(13.483 -2.41)"><title>Sheet.21498</title><path d="M29.57 105.53h10.46a.762.747 0 0 1 .765.747l.005 6.333a.762.747 0 0 1-.765.747l-10.465-.007a.762.747 0 0 1-.765-.747l-.005-6.333a.762.747 0 0 1 .765-.747zm-15.17.76v6.33a.762.747-180 0 0 .762.747l10.468.003a.762.747-180 0 0 .762-.747l-.002-6.333a.762.747-180 0 0-.762-.747l-10.448-.003a.762.747-180 0 0-.775.747zm-14.4 0v6.33a.762.747-180 0 0 .765.747l10.465.003a.762.747-180 0 0 .765-.747l-.005-6.333a.762.747-180 0 0-.765-.747L.77 105.54a.762.747-180 0 0-.765.747z" style="fill:#003067;stroke:none;stroke-width:34;stroke-linecap:butt"/></g></g></g></svg>
